X:1
T:Title
%%score { 1 | ( 2 3 ) }
L:1/8
M:4/4
K:Ab
V:1 treble nm="Grand Piano"
V:2 bass 
V:3 bass 
V:1
 z4 z2[Q:1/4=106] [CE]2 | [CE]2 [Ec]2 [Ec]2 [Fd]2 | c3 B B2 A2 | G2 d2 F2 G2 | %4
[M:3/4] [CF]3 [CE] [CE]2 |[M:1/4] [CE]2 |[M:4/4] [CE]2 [CA]2 [Ec]2 [_Ge]2 | [Fe]2 [Fd]2 F2 G>F | %8
 E2 c2 c3 B |[M:3/4] [CA]6 |[M:1/4] [Ec]>d |[M:4/4] [Ec]3 A E2 [A,EA]>[EB] | A3 G G2 d>e | %13
 d3 c B2 F>G | [CF]3 [CE] [CE]2 [CE]2 | [CE]2 [CA]2 [Ec]2 [_Ge]2 | [Fe]2 [Fd]2 F2 G>F | %17
 E2 c2 c3 B |[M:3/4] [CA]6 |] %19
V:2
 z4 z2 [A,,A,]2 | [A,,A,]2 [A,,A,]2 [A,,A,]2 [D,A,]2 | [E,A,E]3 [E,G,E] [E,DE]2 [E,CE]2 | %3
 [E,B,E]2 [E,G,E]2 [E,G,D]2 [E,B,D]2 |[M:3/4] [A,,A,]3 [A,,A,] [A,,A,]2 |[M:1/4] [A,,A,]2 | %6
[M:4/4] [A,,A,]2 [A,,E,]2 [A,,A,]2 [C,A,]2 | [D,A,]2 [D,A,]2 [D,A,D]2 [=D,_C]->[D,A,C] | %8
 [E,A,C]2 [E,A,E]2 [E,G,E]3 [E,D] |[M:3/4] [A,,E,]6 |[M:1/4] z z/ F/ |[M:4/4] z2 z C C2 C,>[C,A,] | %12
 z4 z2 B,2 | B,4 z4 | [A,,A,]3 [A,,A,] [A,,A,]2 [A,,A,]2 | [A,,A,]2 [A,,E,]2 [A,,A,]2 [C,A,]2 | %16
 [D,A,]2 [D,A,]2 [D,A,D]2 [=D,F,_C]>[D,A,C] | [E,A,C]2 [E,A,E]2 [E,G,E]3 [E,D] |[M:3/4] [A,,E,]6 |] %19
V:3
 x8 | x8 | x8 | x8 |[M:3/4] x6 |[M:1/4] x2 |[M:4/4] x8 | z4 z2 F,2 | x8 |[M:3/4] x6 |[M:1/4] A,,2 | %11
[M:4/4] A,,6 z2 | [E,B,D]3 [E,B,D] [E,B,D]2 [E,E]->[E,CE] | %13
 [E,E]3- [E,A,E-] [G,E]2 [E,G,D]>[E,B,D] | x8 | x8 | x8 | x8 |[M:3/4] x6 |] %19

